X:1
T:Title
%%score 1 2
L:1/8
Q:1/4=100
M:4/4
K:C
V:1 treble nm="Grand Piano, Staff 1"
V:2 bass nm="Choir Pad, Staff 2"
V:1
 [CE][DF][EG][EG] [EG]>[EG] [EG][EG] | [CF][CE][CA][CA] [FA]>[FA] [EG]2 | %2
w: By~S.~Whitney~Allen,~1914 * * * * * * *||
 [CE][DF][EG][EA] [EB][Ec][^Fc][FA] | [^FB]>[Fc] [=Fd]6 | [Ec][Fd][Ge][Ge] [Ge]>[Fd] [Ec][Ec] | %5
w: |||
 [FB][Gc][Fd][Fd] [Fd]>[Fc] [FA]2 | [FA]2 [EG][EA] [EB][Ec][FA][Acf] | [FB]>[Ec] [Ec]6- | %8
w: |||
 [Ec]2 z2 z4 |] %9
w: |
V:2
 [C,G,][C,G,][C,C][C,C] [C,C]>[C,C] [C,C][C,C] | [C,A,][C,G,]F,[F,A,] [F,C]>[F,C] [C,C]2 | %2
 [C,G,][C,G,][C,C][C,C] [C,C][C,C][D,A,][D,C] | [D,B,]>[D,A,] [G,B,]6 | %4
 G,G,[C,C][C,C] [C,C]>[C,G,] [C,G,][C,G,] | [D,G,][E,C][F,A,][F,A,] [F,A,]>[F,A,] [F,C]2 | %6
 [F,C]2 [G,C][G,C] [G,C][A,C][F,C][F,C] | G,>[C,G,] [C,G,]6- | [C,G,]2 z2 z4 |] %9

